X: 33157
T: Princess Royal, The
R: reel
M: 4/4
K: Gminor
|:GA|B2AB G2dc|B2A2 G2d2|e2dc B2c2|d2cd B2B2|
B2gB A2fA|GBAG F2dc|BABG|D2F2|F2G4:|
|:d2|gfga gfga|b2B2B2ga|bagf edcB|A2F2F2GA|
B2B2c2c2|d2d2 g4|f2d2 e4|d2G2c4|
B3A GBAG|F2EF D2dc|BABG D2F2|F2G4:|

